app/result/img/bens-4.svg

<svg width="35" height="42" viewBox="0 0 35 42" fill="none" xmlns="http://www.w3.org/2000/svg">
<path d="M34.9979 18.3154V6.13311C34.9979 5.80195 34.7851 5.50828 34.4708 5.40607L17.9918 0.0377016C17.8249 -0.0169304 17.6524 -0.010286 17.4997 0.0453304C17.3457 -0.00979382 17.1736 -0.0164383 17.0068 0.0377016L0.528252 5.40607C0.213939 5.5082 0.0011783 5.80138 0.0011783 6.13311L0.00216036 18.2864C-0.00446795 18.4641 -0.467549 36.1355 17.1055 41.961C17.1827 41.9872 17.2642 42 17.3453 42H17.6549C17.736 42 17.8175 41.9872 17.8947 41.961C35.4672 36.1355 35.0041 18.4636 34.9979 18.3154ZM17.5311 40.4709H17.4685C1.11743 34.9766 1.50139 19.0215 1.5261 18.3154V6.68812L17.4776 1.49168C17.4852 1.4893 17.4923 1.48643 17.4998 1.48405C17.5065 1.48643 17.5141 1.4893 17.5212 1.49168L33.4731 6.68853L33.474 18.3448C33.4802 18.5102 33.912 34.9637 17.5311 40.4709Z" fill="#BE1622"/>
<path d="M30.2379 8.30558L17.8715 4.13403C17.7643 4.09843 17.6534 4.08981 17.5505 4.09843C17.4472 4.09039 17.3377 4.09843 17.2296 4.13403L4.86451 8.3055C4.55494 8.4105 4.34545 8.70179 4.34545 9.03016L4.34644 18.5225C4.35069 18.6588 4.96884 32.2377 17.2752 37.0164C17.3638 37.0506 17.4576 37.0678 17.5505 37.0678C17.6434 37.0678 17.7373 37.0506 17.8259 37.0164C30.1327 32.2377 30.7517 18.6589 30.7569 18.4954V9.03016C30.7566 8.70187 30.5475 8.41058 30.2379 8.30558ZM17.5505 35.4826C6.46054 30.9785 5.87463 18.5943 5.87037 18.4959V9.57943L17.5505 5.63887L29.232 9.57943L29.2325 18.4684C29.2274 18.5938 28.6405 30.9785 17.5505 35.4826Z" fill="#BE1622"/>
<path d="M26.2795 15.3546C25.9553 15.0828 25.4741 15.1284 25.2054 15.4515L16.3807 26.0468L10.6883 20.0545C10.3959 19.7475 9.91479 19.738 9.61046 20.0274C9.30523 20.3187 9.29337 20.8028 9.58346 21.1079L15.8655 27.7213C16.0101 27.8728 16.2096 27.9588 16.4182 27.9588C16.4262 27.9588 16.4343 27.9588 16.4428 27.9578C16.6604 27.9512 16.8643 27.8509 17.0036 27.6841L26.3763 16.4307C26.6458 16.1068 26.6027 15.6249 26.2795 15.3546Z" fill="#BE1622"/>
</svg>

<svg width="35" height="42" viewBox="0 0 35 42" fill="none" xmlns="http://www.w3.org/2000/svg"><path d="M34.998 18.315V6.133a.764.764 0 0 0-.527-.727L17.99.038a.751.751 0 0 0-.491.007.76.76 0 0 0-.493-.007L.528 5.406a.764.764 0 0 0-.527.727l.001 12.153c-.006.178-.47 17.85 17.103 23.675a.748.748 0 0 0 .24.039h.31a.748.748 0 0 0 .24-.039c17.572-5.825 17.11-23.497 17.103-23.646zM17.53 40.471h-.063C1.118 34.977 1.501 19.02 1.526 18.315V6.688l15.952-5.196.022-.008.021.008 15.952 5.197.001 11.656c.006.165.438 16.619-15.943 22.126z" fill="#BE1622"/><path d="M30.238 8.306L17.872 4.134c-.108-.036-.219-.044-.322-.036a.819.819 0 0 0-.32.036L4.865 8.305a.765.765 0 0 0-.52.725l.001 9.493c.005.136.623 13.715 12.93 18.493a.766.766 0 0 0 .55 0c12.307-4.778 12.926-18.357 12.93-18.52V9.03c0-.328-.209-.62-.518-.724zM17.55 35.483C6.46 30.979 5.875 18.594 5.87 18.496V9.579l11.68-3.94 11.682 3.94v8.89c-.005.125-.591 12.51-11.681 17.014z" fill="#BE1622"/><path d="M26.28 15.355a.76.76 0 0 0-1.075.096l-8.824 10.596-5.693-5.992a.761.761 0 0 0-1.078-.028.766.766 0 0 0-.027 1.08l6.283 6.614a.764.764 0 0 0 .552.238l.025-.001a.761.761 0 0 0 .56-.274l9.373-11.253a.765.765 0 0 0-.097-1.076z" fill="#BE1622"/></svg>
